app/dist/common/images/hargreaves-lansdown.svg

<svg height="18" viewBox="0 0 18 18" width="18" xmlns="http://www.w3.org/2000/svg"><path d="m0 0h18v18h-18z" fill="#071e4a"/><path d="m10 6v6h3.72l.28-1h-3v-5zm-2 0v2.44h-2v-2.44h-1v6h1v-2.56h2v2.56h1v-6z" fill="#fff"/></svg>

<!-- by TradingView --><svg width="18" height="18" viewBox="0 0 18 18" xmlns="http://www.w3.org/2000/svg"><path fill="#071E4A" d="M0 0h18v18H0z"/><path d="M10 6v6h3.72l.28-1h-3V6h-1ZM8 6v2.44H6V6H5v6h1V9.44h2V12h1V6H8Z" fill="#fff"/></svg>
